Flat-Remix-Blue/mimetypes/scalable/application-vector.svg

<svg xmlns="http://www.w3.org/2000/svg" xmlns:xlink="http://www.w3.org/1999/xlink" width="36pt" height="36pt" version="1.1" viewBox="0 0 36 36"> <defs> <clipPath id="clip1"> <path d="M 20 2 L 31 2 L 31 13 L 20 13 Z M 20 2"/> </clipPath> <clipPath id="clip2"> <path d="M 20.515625 2.625 L 30.328125 12.4375 L 22.023438 12.4375 C 21.292969 12.4375 20.515625 11.660156 20.515625 10.929688 Z M 20.515625 2.625"/> </clipPath> <image id="image6" width="36" height="36" xlink:href="data:image/png;base64,iVBORw0KGgoAAAANSUhEUgAAACQAAAAkCAYAAADhAJiYAAAABmJLR0QA/wD/AP+gvaeTAAAAmklEQVRYhe3T0QqCQBBG4aOtYEoUvf9Lildltl00C4tkbBeTIP+BAUEYP1YW1Pcqh53B9kbgaVPcwQF0tAmGSrMZ6AKcDQXw+AUVHEAtcAUaewYYgYmC3+cBCkAPnDJQMcoDVNnebgEqQnmAclTz4d0I3P4JStc9AjXvk4qLWQV53LLeEOl05gw4A3dgcPiuUkoppZRSSqk99gLWvSJpuDnlsAAAAABJRU5ErkJggg=="/> </defs> <g> <path style="fill:rgb(10.980%,58.431%,60.784%);fill-opacity:0.996078" d="M 7.347656 3.152344 C 6.675781 3.152344 6.042969 3.785156 6.042969 4.457031 L 6.042969 31.847656 C 6.042969 32.480469 6.714844 33.152344 7.347656 33.152344 L 28.21875 33.152344 C 28.851562 33.152344 29.523438 32.480469 29.523438 31.847656 L 29.523438 11.632812 L 21.042969 3.152344 Z M 7.347656 3.152344"/> <g clip-path="url(#clip1)"> <g clip-path="url(#clip2)"> <use xlink:href="#image6"/> </g> </g> <path style="fill:rgb(36.862%,74.117%,67.058%)" d="M 21.042969 3.152344 L 29.523438 11.632812 L 22.347656 11.632812 C 21.714844 11.632812 21.042969 10.960938 21.042969 10.328125 Z M 21.042969 3.152344"/> <path style="fill:rgb(100.000%,100.000%,100.000%)" d="M 21.550781 14.085938 C 21.175781 14.085938 20.855469 14.285156 20.679688 14.574219 L 16.984375 14.574219 C 16.984375 14.574219 16.25 14.5625 15.496094 14.925781 C 14.738281 15.292969 13.941406 16.125 13.941406 17.511719 C 13.941406 18.898438 14.738281 19.730469 15.496094 20.09375 C 15.851562 20.265625 16.207031 20.339844 16.476562 20.382812 L 16.476562 20.597656 L 15.082031 21.945312 C 15.039062 21.933594 15.003906 21.914062 14.957031 21.914062 C 14.675781 21.914062 14.449219 22.132812 14.449219 22.402344 C 14.449219 22.671875 14.675781 22.890625 14.957031 22.890625 C 15.238281 22.890625 15.464844 22.671875 15.464844 22.402344 C 15.464844 22.355469 15.445312 22.320312 15.433594 22.28125 L 16.828125 20.933594 L 18.507812 20.933594 L 18.507812 20.445312 L 19.015625 20.445312 C 19.015625 20.445312 19.546875 20.457031 20.058594 20.707031 C 20.574219 20.953125 21.042969 21.34375 21.042969 22.402344 C 21.042969 23.460938 20.574219 23.851562 20.058594 24.097656 C 19.546875 24.347656 19.015625 24.359375 19.015625 24.359375 L 15.320312 24.359375 C 15.144531 24.066406 14.824219 23.871094 14.449219 23.871094 C 13.890625 23.871094 13.433594 24.308594 13.433594 24.847656 C 13.433594 25.386719 13.890625 25.824219 14.449219 25.824219 C 14.824219 25.824219 15.144531 25.628906 15.320312 25.335938 L 19.015625 25.335938 C 19.015625 25.335938 19.75 25.347656 20.503906 24.984375 C 21.261719 24.621094 22.058594 23.789062 22.058594 22.402344 C 22.058594 21.015625 21.261719 20.183594 20.503906 19.820312 C 19.75 19.453125 19.015625 19.46875 19.015625 19.46875 L 18.507812 19.46875 L 18.507812 19.316406 L 19.902344 17.96875 C 19.945312 17.980469 19.984375 18 20.027344 18 C 20.308594 18 20.535156 17.78125 20.535156 17.511719 C 20.535156 17.242188 20.308594 17.023438 20.027344 17.023438 C 19.75 17.023438 19.523438 17.242188 19.523438 17.511719 C 19.523438 17.554688 19.542969 17.59375 19.554688 17.632812 L 18.160156 18.976562 L 16.476562 18.976562 L 16.476562 19.390625 C 16.3125 19.351562 16.128906 19.300781 15.941406 19.207031 C 15.425781 18.960938 14.957031 18.570312 14.957031 17.511719 C 14.957031 16.449219 15.425781 16.0625 15.941406 15.8125 C 16.453125 15.566406 16.984375 15.554688 16.984375 15.554688 L 20.679688 15.554688 C 20.855469 15.847656 21.175781 16.042969 21.550781 16.042969 C 22.109375 16.042969 22.566406 15.605469 22.566406 15.066406 C 22.566406 14.523438 22.109375 14.085938 21.550781 14.085938 Z M 21.550781 14.085938"/> </g> </svg>

<svg width="36pt" height="36pt" version="1.1" viewBox="0 0 36 36" xmlns="http://www.w3.org/2000/svg"><defs><filter id="a" x="-.192" y="-.192" width="1.384" height="1.384" color-interpolation-filters="sRGB"><feGaussianBlur stdDeviation="0.67843748"/></filter></defs><path d="m7.3477 3.1523c-0.67188 0-1.3047 0.63281-1.3047 1.3047v27.391c0 0.63281 0.67188 1.3047 1.3047 1.3047h20.871c0.63281 0 1.3047-0.67188 1.3047-1.3047v-20.215l-8.4805-8.4805z" fill="#1b949a" fill-opacity=".99608"/><path d="m20.668 3.5272 8.4805 8.4805h-7.1758c-0.63281 0-1.3047-0.67187-1.3047-1.3047z" filter="url(#a)" opacity=".2"/><path d="m21.043 3.1523 8.4805 8.4805h-7.1758c-0.63281 0-1.3047-0.67187-1.3047-1.3047z" fill="#5dbcaa"/><path d="m21.551 14.086c-0.375 0-0.69531 0.19922-0.87109 0.48828h-3.6953s-0.73438-0.011719-1.4883 0.35156c-0.75781 0.36719-1.5547 1.1992-1.5547 2.5859s0.79688 2.2188 1.5547 2.582c0.35547 0.17188 0.71094 0.24609 0.98047 0.28906v0.21484l-1.3945 1.3477c-0.042969-0.011718-0.078125-0.03125-0.125-0.03125-0.28125 0-0.50781 0.21875-0.50781 0.48828 0 0.26953 0.22656 0.48828 0.50781 0.48828s0.50781-0.21875 0.50781-0.48828c0-0.046875-0.019532-0.082032-0.03125-0.12109l1.3945-1.3477h1.6797v-0.48828h0.50781s0.53125 0.011719 1.043 0.26172c0.51562 0.24609 0.98438 0.63672 0.98438 1.6953s-0.46875 1.4492-0.98438 1.6953c-0.51172 0.25-1.043 0.26172-1.043 0.26172h-3.6953c-0.17578-0.29297-0.49609-0.48828-0.87109-0.48828-0.55859 0-1.0156 0.4375-1.0156 0.97656 0 0.53906 0.45703 0.97656 1.0156 0.97656 0.375 0 0.69531-0.19531 0.87109-0.48828h3.6953s0.73438 0.011718 1.4883-0.35156c0.75781-0.36328 1.5547-1.1953 1.5547-2.582 0-1.3867-0.79688-2.2188-1.5547-2.582-0.75391-0.36719-1.4883-0.35156-1.4883-0.35156h-0.50781v-0.15234l1.3945-1.3477c0.042968 0.011719 0.082031 0.03125 0.125 0.03125 0.28125 0 0.50781-0.21875 0.50781-0.48828s-0.22656-0.48828-0.50781-0.48828c-0.27734 0-0.50391 0.21875-0.50391 0.48828 0 0.042969 0.019531 0.082031 0.03125 0.12109l-1.3945 1.3438h-1.6836v0.41406c-0.16406-0.039063-0.34766-0.089844-0.53516-0.18359-0.51562-0.24609-0.98438-0.63672-0.98438-1.6953 0-1.0625 0.46875-1.4492 0.98438-1.6992 0.51172-0.24609 1.043-0.25781 1.043-0.25781h3.6953c0.17578 0.29297 0.49609 0.48828 0.87109 0.48828 0.55859 0 1.0156-0.4375 1.0156-0.97656 0-0.54297-0.45703-0.98047-1.0156-0.98047z" fill="#fff"/></svg>
